X:1
T:PETITE PIÈCE
T:pour Clarinette et Piano
T:CLAUDE DEBUSSY
%%score 1 { ( 2 4 ) | ( 3 5 ) }
L:1/8
Q:1/4=80
M:2/4
K:G
V:1 treble transpose=-2 nm="CLARINETTE\nen SI♭"
V:2 treble nm="PIANO"
V:4 treble 
V:3 treble 
V:5 treble 
V:1
[K:A]"^Modéré et doucement rhythmé""^Modéré et doucement rhythmé"!mf! (G/>A/)G- (G/>A/)(G/>A/) | %1
 !breath!G4 |!p! (G/>A/)(G/>A/) (G/>A/)(B/>c/) | (G/>A/)G- (G/>A/)(G/>A/) | %4
 (G/>A/)(B/>A/) (G/>A/)(F/>G/) |!<(! E3 (3(G/E/G/)!<)! |!>(! E3!>)! z | z2 z (3(G/E/G/) | %8
!<(! (B/>c/)(d/>c/)!<)!!>(! (B/>c/)(A/>c/)!>)! | (B/>c/)B- (B/>c/)(B/>A/) | %10
"_dim." (G/>A/)(B/>A/) (G/>A/)(F/>G/) | E2- (E/>F/)(E/>G/) | E2- (E/>F/)(E/>G/) | E4 | %14
 z!p! (F/>!<(!A/ ^B)(^d/>g/)!<)! |!>(! (e/>^d/)!>)!c- c!tenuto!G | (G/>A/)(G/>^B/) .G!tenuto!G- | %17
 (G/>A/)(G/^d/4^B/4 .G) !tenuto!G- |"_cresc." (G/>^A/)(^B/>c/)"_cresc." (^d/>e/)(f/>g/) | %19
"_cresc." (^a/>g/)a- (a/>^b/)(a/>g/) |!f! (^a/>g/)a- (a/>^b/)(a/>g/) | %21
!>(! (.^a.g)!>)! !tenuto!G2- |!pp! (G/>=A/)G- G2- | (G/>A/)G- (G/>A/)(G/>A/) | %24
 (G/>A/)(B/>A/) (G/>A/)(F/>G/) |!<(! E3 (3(G/E/G/)!<)! |!>(! E3!>)! z | z2 z (3(G/E/G/) | %28
!<(! (B/>c/)(d/>c/)!<)!!>(! (B/>c/)(A/>c/)!>)! | (B/>c/)B- (B/>c/)(B/>A/) | %30
!p! (=G/>A/)(B/>A/) (G/>A/)(F/>G/) | E2- (E/>F/)(E/>=G/) | E4- |!p! (E/>F/)(E/>=G/)!>(! E2- | %34
 E2!>)! z!>(! (3(^G/E/G/)!>)! | %35
[Q:1/4=40]"^Un peu retenu"!pp![Q:1/4=40] (B/>c/)(d/>c/) (B/>c/)(A/>c/) |!>(! (B/>c/)A-!>)! A2- | %37
 A z z2 |] %38
V:2
 z2!mf! !tenuto![^c'e']2- | [c'e']2 z2 |!pp! z2 .[=ce]2 | z2 .[B^d]2 | z2 .[_Bd]2 | %5
[K:bass]!pp! z!<(! _B,C.D!<)! |!pp! z!<(! _B,C.D!<)! |!pp! z!<(! _B,C.D!<)! | %8
 z!<(! ([E,A,C]!<)!!>(![F,CE]!>)![G,B,D]) | z!<(! ([E,A,C]!<)!!>(![F,CE]!>)![G,B,D]) | %10
"_dim." z (.[D,B,D] !tenuto![^C,_B,^C]2) | z (.[=C,A,=C] !tenuto![B,,^G,B,]2) | %12
 z (.[^A,,=G,^A,] !tenuto![B,,G,B,]2) |!pp! z [A,,F,A,]3 |[K:treble]!p! !tenuto![^A^cf]4 | [Bdf]4 | %16
!>(! !tenuto!f4!>)! |!>(! !tenuto!f4!>)! |"_cresc." !tenuto![Fdf]4 |"_cresc." !tenuto![Fdf]4 | %20
!f! [F^df]4 | [F^cf]3 z |!pp!!8va(! (f'/>g'/)(f'/>g'/) (f'/>g'/)(a'/>b'/) | %23
 (f'/>g'/)f'- (f'/>g'/)(f'/>g'/) | (f'/>g'/)(a'/>g'/) (f'/>g'/)(e'/>f'/) | %25
 d'!8va)!!p! ([EGc]!>(! [DFA]2)!>)! |[K:bass]!pp! z!<(! _B,C.D!<)! |!pp! z!<(! _B,C.D!<)! | %28
 z!<(! ([E,A,C]!<)!!>(![F,CE]!>)![G,B,D]) | z!<(! ([E,A,C]!<)!!>(![F,CE]!>)![G,B,D]) | %30
!p! [D,_B,D]4- |!>(! [D,B,D]4- | [D,B,D]2 z2!>)! |!p!!>(! z4 | z4!>)! |!pp! !tenuto![E,CE]4- | %36
 [E,CE]4- | [E,CE] z z2 |] %38
V:3
 z2 (!tenuto![^ce]2- | [ce]2 [^CE]2) | [=CE]4 | [B,^D]4 | [_B,=D]4 |[K:bass] (!tenuto!_A,,3 .D,,) | %6
 (!tenuto!_A,,3 .D,,) | (!tenuto!_A,,3 .D,,) | (G,,3 .D,,) | (G,,3 .D,,) | (G,,3 .F,,) | %11
 (=F,,3 .E,,) | (_E,,2 A,,,2) | z2 (.D,[I:staff -1].D,) |[I:staff +1][K:treble] !tenuto![EG]4 | %15
 F4 | ([EG]2 F2) | ([EG]2 F2) | D4 | [B,D]4 |[K:bass] [^G,B,^D]4 | [^C,^A,]3 z | %22
[K:treble] ([=CE]2 [ce]2) | ([B,^D]2 [B^d]2) | ([_B,=D]2 [_B=d]2) | (A,3[K:bass] D,) | %26
 (!tenuto!_A,,3 .D,,) | (!tenuto!_A,,3 .D,,) | (G,,3 .D,,) | (G,,3 .D,,) | [_B,,,_B,,]4- | %31
 [B,,,B,,]2 ([A,,,A,,]2 | [_A,,,_A,,]2 [=A,,,=A,,]2) | ([_B,,,_B,,]2 [A,,,A,,]2 | %34
 [_B,,,_B,,]2 [=B,,,=B,,]2) | ([C,,G,,C,]4 | [G,,,D,,-G,,-]4) | [D,,G,,] z z2 |] %38
V:4
 x4 | x4 | x4 | x4 | x4 |[K:bass] x ([D,=F,]2 [^F,_B,]) | x ([D,=F,]2 [^F,_B,]) | %7
 x ([D,=F,]2 [^F,_B,]) | x4 | x4 | x4 | x4 | x4 | x4 |[K:treble] x2!>(! x2!>)! | x4 | %16
 ([^A^c]2 [Bd]2) | ([^A^c]2 [Bd]2) | x2"_cresc." x2 | x4 | x4 | x4 |!8va(! x4 | x4 | x4 | %25
 x!8va)! x3 |[K:bass] x ([D,=F,]2 [^F,_B,]) | x ([D,=F,]2 [^F,_B,]) | x4 | x4 | x4 | x4 | x4 | x4 | %34
 x4 | x4 | x4 | x4 |] %38
V:5
 x4 | x4 | x4 | x4 | x4 |[K:bass] x4 | x4 | x4 | x4 | x4 | x4 | x4 | x4 | D,,4 |[K:treble] D4 | %15
 D4 | !tenuto!D4 | !tenuto!D4 | (C2 B,2 | ^A,2 ^G,2) |[K:bass] (^C,4 | F,,3) x |[K:treble] x4 | %23
 x4 | x4 | x3[K:bass] x | x4 | x4 | x4 | x4 | x4 | x4 | x4 | x4 | x4 | x4 | x4 | .G,,, x x2 |] %38

